resources/svg/mandriva.svg

<svg xmlns="http://www.w3.org/2000/svg" viewBox="0 0 24 24" fill="currentColor"><path fill="currentColor" fill-rule="evenodd" d="M14.5570931,17.2000288 C11.5359885,19.9198072 8.20256657,21.3464829 5.48168143,21.3477982 L5.47448141,21.3477982 C3.53623738,21.3469582 1.90939399,20.6221567 0.929831949,19.1255136 C-1.43057297,15.5191461 0.857831799,8.79721207 6.0417226,4.11132231 C6.48248351,3.71304149 6.93008445,3.34272071 7.38104539,3 C3.03835634,7.58232954 1.26883266,13.546462 3.44275718,16.8678289 C5.39538971,19.8509662 9.91672716,19.7668791 14.3554206,16.9971815 L13.0316172,15.6656664 C12.8748968,15.5090661 12.6040563,15.4076658 12.3402957,15.4076658 C12.2337355,15.4076658 12.1324553,15.4249459 12.0478551,15.4574659 L7.76936619,17.1139494 C7.66772598,17.1534295 7.57496579,17.1731095 7.49408562,17.1731095 C7.31780525,17.1731095 7.23512508,17.0811893 7.20176501,17.0262292 C7.1495649,16.940789 7.11452483,16.7857487 7.2444851,16.5305082 L9.33848946,12.4490597 C9.48608977,12.1594991 9.43796967,11.7014581 9.23264924,11.4486176 L6.33584321,7.89157019 C6.1409628,7.65300969 6.15512283,7.48608934 6.20168293,7.38816914 C6.235163,7.31748899 6.32816319,7.19892875 6.5736837,7.19892875 C6.6216838,7.19892875 6.67364391,7.20360876 6.72884403,7.21260877 L11.2574135,7.94185029 C11.2922135,7.9476103 11.3294136,7.95037031 11.3676937,7.95037031 C11.6742943,7.95037031 12.0216951,7.77084994 12.1756554,7.53348944 L14.6625406,3.67956142 C14.8154209,3.44304092 14.9649412,3.39336082 15.0633414,3.39336082 C15.1529816,3.39336082 15.368742,3.43704091 15.4313822,3.84156175 L16.1365036,8.3750512 C16.1864237,8.69701187 16.4945844,9.03925258 16.808865,9.12241275 L21.2429943,10.2967352 C21.5752749,10.3851754 21.6415151,10.5556957 21.6513551,10.6492959 C21.6613151,10.7426561 21.6323951,10.9227765 21.3261544,11.0781768 L17.2318659,13.1493811 C16.9415853,13.2957814 16.7119048,13.6941823 16.7297849,14.019503 L16.9825054,18.6005125 C16.9935454,18.7941929 16.9555053,18.9384332 16.8698251,19.0291534 C16.811985,19.0899935 16.7372249,19.1222736 16.6528647,19.1222736 C16.5299844,19.1222736 16.3999042,19.0537534 16.2657439,18.9186332 L14.5570935,17.2000293 L14.5570931,17.2000288 Z M24,11.4025855 C22.7552374,10.7310641 22.576677,10.7632242 21.6445151,11.8272664 C22.3162765,10.5826238 22.2838764,10.4035834 21.2195942,9.47142148 C22.4647168,10.1433029 22.6436372,10.1110228 23.5756791,9.04710059 C22.9040377,10.2918632 22.9364378,10.4706636 24,11.4025855 Z"/></svg>

<svg viewBox="0 0 24 24"><path fill="currentColor" fill-rule="evenodd" d="M14.557 17.2c-3.021 2.72-6.354 4.146-9.075 4.148h-.008c-1.938-.001-3.565-.726-4.544-2.222C-1.43 15.519.858 8.797 6.042 4.11c.44-.398.888-.768 1.339-1.111c-4.343 4.582-6.112 10.546-3.938 13.868c1.952 2.983 6.474 2.899 10.912.13l-1.323-1.332c-.157-.157-.428-.258-.692-.258a.826.826 0 0 0-.292.05l-4.279 1.656a.774.774 0 0 1-.275.06c-.176 0-.259-.093-.292-.148c-.052-.085-.087-.24.042-.495l2.094-4.082c.148-.29.1-.748-.105-1L6.336 7.892c-.195-.239-.18-.406-.134-.504c.033-.07.126-.19.372-.19c.048 0 .1.006.155.015l4.528.729a.68.68 0 0 0 .11.008c.307 0 .655-.18.809-.417l2.487-3.853c.152-.237.302-.287.4-.287c.09 0 .306.044.368.449l.706 4.533c.05.322.358.664.672.747l4.434 1.175c.332.088.399.259.408.352c.01.094-.019.274-.325.43l-4.094 2.07c-.29.147-.52.545-.502.87l.253 4.582c.01.193-.027.337-.113.428a.292.292 0 0 1-.217.093c-.123 0-.253-.068-.387-.203L14.557 17.2zM24 11.403c-1.245-.672-1.423-.64-2.355.424c.671-1.244.639-1.423-.425-2.356c1.245.672 1.424.64 2.356-.424c-.672 1.245-.64 1.424.424 2.356z"/></svg>
